X:1643
L:1/8
Q:3/8=90
M:6/8
K:G
 d | D>EF G>AB/c/ | def gdB | e g2 d g2 | cac TB2 A | D>EF G>AB/c/ | def gfe | f/g/af e/f/g^c | 
 d3 D2 :: d | ec/d/e dA/B/c | B/c/dG F/G/AD | GAB ABc | TB3 A2 d | e g2 d g2 | cac B/c/dD | 
 EcA B/c/dG | DGF G2 :|

